.files/icons/devices/LTE#2.svg

<svg fill="none" height="48" viewBox="0 0 48 48" width="48" xmlns="http://www.w3.org/2000/svg"><g clip-rule="evenodd" fill="#000" fill-rule="evenodd"><path d="m12.5124 37.8583-2.55462 3.078c-5.00393-4.1531-7.95778-10.3056-7.95778-16.9363 0-6.6216 2.94564-12.7665 7.9377-16.91968l2.5582 3.07498c-4.08803 3.4011-6.4959 8.4241-6.4959 13.8447 0 5.428 2.41459 10.4573 6.5124 13.8583zm22.9752 0 2.5546 3.078c5.0039-4.1531 7.9578-10.3056 7.9578-16.9363 0-6.6216-2.9456-12.7665-7.9377-16.91968l-2.5582 3.07498c4.088 3.4011 6.4959 8.4241 6.4959 13.8447 0 5.428-2.4146 10.4573-6.5124 13.8583zm-5.1306-6.1385 2.5448 3.0861c3.2039-2.642 5.0982-6.5712 5.0982-10.8059 0-4.2209-1.8818-8.1386-5.0678-10.7808l-2.5534 3.079c2.2791 1.8901 3.6212 4.6842 3.6212 7.7018 0 3.0275-1.351 5.8298-3.643 7.7198zm-15.2588 3.0861 2.5448-3.0861c-2.292-1.89-3.643-4.6923-3.643-7.7198 0-3.0176 1.3421-5.8117 3.6212-7.7018l-2.5534-3.079c-3.186 2.6422-5.0678 6.5599-5.0678 10.7808 0 4.2347 1.8943 8.1639 5.0982 10.8059z" opacity=".3"/><path d="m26 28.584c1.7659-.7716 3-2.5337 3-4.584 0-2.7614-2.2386-5-5-5s-5 2.2386-5 5c0 2.0503 1.2341 3.8124 3 4.584v12.416c0 .5523.4477 1 1 1h2c.5523 0 1-.4477 1-1z"/></g></svg>

<svg width="48" height="48" viewBox="0 0 48 48" fill="none" xmlns="http://www.w3.org/2000/svg">
<path opacity="0.3" fill-rule="evenodd" clip-rule="evenodd" d="M12.5124 37.8583L9.95778 40.9363C4.95385 36.7832 2 30.6307 2 24C2 17.3784 4.94564 11.2335 9.9377 7.08032L12.4959 10.1553C8.40787 13.5564 6 18.5794 6 24C6 29.428 8.41459 34.4573 12.5124 37.8583ZM35.4876 37.8583L38.0422 40.9363C43.0461 36.7832 46 30.6307 46 24C46 17.3784 43.0544 11.2335 38.0623 7.08032L35.5041 10.1553C39.5921 13.5564 42 18.5794 42 24C42 29.428 39.5854 34.4573 35.4876 37.8583ZM30.357 31.7198L32.9018 34.8059C36.1057 32.1639 38 28.2347 38 24C38 19.7791 36.1182 15.8614 32.9322 13.2192L30.3788 16.2982C32.6579 18.1883 34 20.9824 34 24C34 27.0275 32.649 29.8298 30.357 31.7198ZM15.0982 34.8059L17.643 31.7198C15.351 29.8298 14 27.0275 14 24C14 20.9824 15.3421 18.1883 17.6212 16.2982L15.0678 13.2192C11.8818 15.8614 10 19.7791 10 24C10 28.2347 11.8943 32.1639 15.0982 34.8059Z" fill="black"/>
<path fill-rule="evenodd" clip-rule="evenodd" d="M26 28.584C27.7659 27.8124 29 26.0503 29 24C29 21.2386 26.7614 19 24 19C21.2386 19 19 21.2386 19 24C19 26.0503 20.2341 27.8124 22 28.584V41C22 41.5523 22.4477 42 23 42H25C25.5523 42 26 41.5523 26 41V28.584Z" fill="black"/>
</svg>
